app/images/icon/top-time.svg

<svg width="27" height="27" viewBox="0 0 27 27" fill="none" xmlns="http://www.w3.org/2000/svg">
<path d="M24.1737 20.075C23.7063 19.7273 23.0457 19.8244 22.698 20.2917C22.5068 20.5487 22.3022 20.8008 22.0898 21.041C21.7041 21.4774 21.745 22.144 22.1814 22.5298C22.3821 22.7072 22.6313 22.7943 22.8796 22.7943C23.1713 22.7943 23.4618 22.6739 23.6702 22.4381C23.9217 22.1537 24.164 21.8551 24.3904 21.5506C24.7381 21.0834 24.6411 20.4226 24.1737 20.075Z" fill="white"/>
<path d="M25.9377 15.1288C25.3689 15.0049 24.8067 15.3659 24.6828 15.935C24.6146 16.2481 24.5322 16.5617 24.4378 16.8674C24.2658 17.4239 24.5776 18.0145 25.1341 18.1864C25.2378 18.2184 25.3427 18.2337 25.4458 18.2337C25.8962 18.2337 26.3132 17.9429 26.4531 17.49C26.5653 17.1273 26.663 16.7551 26.7439 16.3836C26.8678 15.8145 26.5068 15.2527 25.9377 15.1288Z" fill="white"/>
<path d="M19.0972 23.4528C18.8171 23.6091 18.5272 23.7551 18.2355 23.8869C17.7046 24.1267 17.4686 24.7513 17.7084 25.2822C17.8845 25.6722 18.2683 25.9031 18.6702 25.9031C18.8153 25.9031 18.9628 25.873 19.1037 25.8094C19.4497 25.6531 19.7935 25.4798 20.1255 25.2945C20.6341 25.0105 20.8162 24.368 20.5322 23.8595C20.2483 23.3509 19.6058 23.1688 19.0972 23.4528Z" fill="white"/>
<path d="M12.4453 5.0625V13.0631L8.57781 16.9306C8.16596 17.3425 8.16596 18.0103 8.57781 18.4221C8.78379 18.6281 9.05364 18.731 9.32364 18.731C9.59353 18.731 9.86348 18.628 10.0695 18.4221L14.2458 14.2458C14.4436 14.048 14.5547 13.7797 14.5547 13.5V5.0625C14.5547 4.48 14.0825 4.00781 13.5 4.00781C12.9175 4.00781 12.4453 4.48 12.4453 5.0625Z" fill="white"/>
<path d="M25.9453 2.26758C25.3628 2.26758 24.8906 2.73976 24.8906 3.32227V6.25092C22.4357 2.40089 18.1486 0 13.5 0C9.89402 0 6.50389 1.40426 3.95402 3.95402C1.40426 6.50389 0 9.89402 0 13.5C0 17.106 1.40426 20.4961 3.95402 23.046C6.50389 25.5957 9.89402 27 13.5 27C13.5089 27 13.5175 26.9989 13.5264 26.9987C13.5352 26.9989 13.5438 27 13.5527 27C13.9328 27 14.3167 26.984 14.6937 26.9524C15.2742 26.9038 15.7054 26.3939 15.6568 25.8134C15.6081 25.233 15.0989 24.8016 14.5177 24.8504C14.199 24.8771 13.8744 24.8906 13.5527 24.8906C13.5438 24.8906 13.5352 24.8917 13.5264 24.8919C13.5175 24.8917 13.5089 24.8906 13.5 24.8906C7.21918 24.8906 2.10938 19.7808 2.10938 13.5C2.10938 7.21918 7.21918 2.10938 13.5 2.10938C17.5478 2.10938 21.2708 4.2669 23.3052 7.69922H20.4052C19.8227 7.69922 19.3505 8.1714 19.3505 8.75391C19.3505 9.33641 19.8227 9.80859 20.4052 9.80859H23.625C24.2673 9.80859 24.8682 9.62808 25.3798 9.31537C25.4127 9.2966 25.4444 9.2764 25.4746 9.25462C26.3924 8.65076 27 7.61205 27 6.43359V3.32227C27 2.73976 26.5278 2.26758 25.9453 2.26758Z" fill="white"/>
</svg>

<svg width="27" height="27" fill="none" xmlns="http://www.w3.org/2000/svg">
    <path d="M24.174 20.075a1.055 1.055 0 0 0-1.476.217c-.191.257-.396.509-.608.749a1.055 1.055 0 0 0 1.58 1.397c.252-.284.494-.583.72-.887a1.054 1.054 0 0 0-.216-1.476ZM25.938 15.129a1.055 1.055 0 0 0-1.255.806c-.068.313-.15.627-.245.932a1.055 1.055 0 1 0 2.015.623c.112-.363.21-.735.29-1.106a1.055 1.055 0 0 0-.805-1.255ZM19.097 23.453c-.28.156-.57.302-.862.434a1.055 1.055 0 1 0 .869 1.922c.346-.156.69-.33 1.021-.515a1.055 1.055 0 1 0-1.028-1.841ZM12.445 5.063v8l-3.867 3.868a1.055 1.055 0 1 0 1.492 1.491l4.176-4.176c.198-.198.309-.466.309-.746V5.062a1.055 1.055 0 1 0-2.11 0Z" fill="#fff"/>
    <path d="M25.945 2.268c-.582 0-1.054.472-1.054 1.054v2.929A13.532 13.532 0 0 0 13.5 0a13.412 13.412 0 0 0-9.546 3.954A13.412 13.412 0 0 0 0 13.5c0 3.606 1.404 6.996 3.954 9.546A13.412 13.412 0 0 0 13.5 27l.026-.001.027.001c.38 0 .764-.016 1.14-.048a1.055 1.055 0 1 0-.175-2.102c-.319.027-.644.04-.965.04l-.027.002-.026-.001c-6.28 0-11.39-5.11-11.39-11.391 0-6.28 5.11-11.39 11.39-11.39 4.048 0 7.77 2.157 9.805 5.59h-2.9a1.055 1.055 0 1 0 0 2.109h3.22a3.354 3.354 0 0 0 1.85-.554A3.374 3.374 0 0 0 27 6.434V3.322c0-.582-.472-1.054-1.055-1.054Z" fill="#fff"/>
</svg>
